icons/mobile.svg

<svg xmlns="http://www.w3.org/2000/svg" width="96" height="96"><path d="M44 74c0-2.208 1.792-4 4-4s4 1.792 4 4-1.792 4-4 4-4-1.792-4-4zm32-62.3v72.6c0 2-.8 4-2.3 5.4-1.4 1.5-3.4 2.3-5.4 2.3H27.7c-2 0-4-.8-5.4-2.3-1.5-1.4-2.3-3.4-2.3-5.4V11.7c0-2 .8-4 2.3-5.4C23.7 4.8 25.7 4 27.7 4h40.6c2 0 4 .8 5.4 2.3 1.5 1.4 2.3 3.4 2.3 5.4zm-8 .3v72H28V12h40z" fill-rule="evenodd" fill="#454545"/></svg>

<?xml version="1.0" standalone="no"?><!-- Generator: Gravit.io --><svg xmlns="http://www.w3.org/2000/svg" xmlns:xlink="http://www.w3.org/1999/xlink" width="96" height="96"><path d=" M 44 74 C 44 71.79233988198995 45.792339881989946 70 48 70 C 50.20766011801005 70 52 71.79233988198995 52 74 C 52 76.20766011801005 50.207660118010054 78 48 78 C 45.79233988198995 78 44 76.20766011801005 44 74 Z  M 76 11.7 L 76 84.3 C 76 86.3 75.2 88.3 73.7 89.7 C 72.3 91.2 70.3 92 68.3 92 L 27.7 92 C 25.7 92 23.7 91.2 22.3 89.7 C 20.8 88.3 20 86.3 20 84.3 L 20 11.7 C 20 9.7 20.8 7.7 22.3 6.3 C 23.7 4.8 25.7 4 27.7 4 L 68.3 4 C 70.3 4 72.3 4.8 73.7 6.3 C 75.2 7.7 76 9.7 76 11.7 Z  M 68 12 L 68 84 L 28 84 L 28 12 L 68 12 Z " fill-rule="evenodd" fill="#454545" stroke="none"/><mask id="_mask_ejZZRMaHx88C2i3k2ni2SwYQzraGaHGT"><path d=" M 44 74 C 44 71.79233988198995 45.792339881989946 70 48 70 C 50.20766011801005 70 52 71.79233988198995 52 74 C 52 76.20766011801005 50.207660118010054 78 48 78 C 45.79233988198995 78 44 76.20766011801005 44 74 Z  M 76 11.7 L 76 84.3 C 76 86.3 75.2 88.3 73.7 89.7 C 72.3 91.2 70.3 92 68.3 92 L 27.7 92 C 25.7 92 23.7 91.2 22.3 89.7 C 20.8 88.3 20 86.3 20 84.3 L 20 11.7 C 20 9.7 20.8 7.7 22.3 6.3 C 23.7 4.8 25.7 4 27.7 4 L 68.3 4 C 70.3 4 72.3 4.8 73.7 6.3 C 75.2 7.7 76 9.7 76 11.7 Z  M 68 12 L 68 84 L 28 84 L 28 12 L 68 12 Z " fill-rule="evenodd" fill="white" stroke="none"/></mask><path d=" M 44 74 C 44 71.79233988198995 45.792339881989946 70 48 70 C 50.20766011801005 70 52 71.79233988198995 52 74 C 52 76.20766011801005 50.207660118010054 78 48 78 C 45.79233988198995 78 44 76.20766011801005 44 74 Z  M 76 11.7 L 76 84.3 C 76 86.3 75.2 88.3 73.7 89.7 C 72.3 91.2 70.3 92 68.3 92 L 27.7 92 C 25.7 92 23.7 91.2 22.3 89.7 C 20.8 88.3 20 86.3 20 84.3 L 20 11.7 C 20 9.7 20.8 7.7 22.3 6.3 C 23.7 4.8 25.7 4 27.7 4 L 68.3 4 C 70.3 4 72.3 4.8 73.7 6.3 C 75.2 7.7 76 9.7 76 11.7 Z  M 68 12 L 68 84 L 28 84 L 28 12 L 68 12 Z " fill-rule="evenodd" fill="none" stroke="none" stroke-width="16" mask="url(#_mask_ejZZRMaHx88C2i3k2ni2SwYQzraGaHGT)"/></svg>
